X: 24421
T: Low Ditch, The
R: reel
M: 4/4
K: Gmajor
|:ge|d2 Bd GABG|A/B/A FA DAFA|GE E/G/E B,E E/F/G|Bdeg fged|
B/d/B GB dBGB|A/B/A FA DAFD|GE E/G/E B,E E/F/G|BdAd BG:|
|:GE|DBBG AGEG|_E_B=BG AG=EG|DEGA Bdef|gedB AGEG|
DBBG AGEG|_E_B=BG AG=EG|DEGA Bdge|dBAB G2:|

